X:1
T:Tonernes Flugt.
T:Tonernes Flugt.
T:Halfdan Kjerulf
T:H. Hertz
C:Halvdan Kjerulf
Z:H. Hertz
%%score [ 1 2 3 ( 4 5 ) ]
L:1/8
Q:1/4=100
M:6/8
K:Ab
V:1 treble-8 nm="T1"
V:2 treble-8 nm="T2"
V:3 bass nm="B1"
V:4 bass nm="B2"
V:5 bass 
V:1
"^Allegro moderato"!mf! c | c3/2 c/ c e c A | B2!<(! B d3/2!<)!!f! d/ d | A3/2 G/ A B3/2 A/ B | %4
w: 1.Der|kom- mer i Vaa- ren en|Sværm til Nord: det er|Fug- le- nes sjun- gen- de|
w: 2.O|hør, hvor det klin- ger, af-|sted, af- sted! med vor|drøm- men- de Sjæl gaa vi|
!>(! (c3 c2)!>)! A | f3/2 f/ e e =d B |!<(! g3/2 g/!<)! f f!>(! =e c!>)! | c3"^cresc." =d2 d | %8
w: Kor. _ De|Læn- ges i- gjen til O-|ran- ger- nes Hjem, og vor|Læng- sel vil|
w: med! _ Af|To- ner vi løf- tes, med|To- ner vi gaa, og med|dem vi He-|
 e3 f2 ^f | g e!>(! c B!>)! A F | (E3 E2) z | z2 z!p! e3 | e3 e3 | e3!<(! c2 c!<)! | %14
w: dra- ge, vor|Læng- sel vil dra- ge med|dem. _|O,|lad os|flyg- te fra|
w: spe- rien, med|dem vi He- spe- ri- en|naa. _|En|gyng- ende|Pha- e- ton,|
 !>!f2 e!>(! !>!e2 e!>)! |!p! (!>!d3 !>!B3) | !>!G3 !>!E3 |!<(! A c e!<)! a g f | %18
w: Land og By! o,|lad _|os, o,|lad os med Sky- er- ne|
w: let og fin, den|bæ- rer|os, den|bæ- rer, den bæ- rer os|
 !>!=d2 e !>!f2 e | c3/2 c/ c"^cresc." c2 c | =d3/2 c/ d!>(! e2 _d!>)! |!<(! c d e!<)! f =g a | %22
w: fly! ja fly! med|Straa- ler- ne fra den|sti- gen- de Sol for-|la- de vor nord- li- ge|
w: Elsk- te min! og|Phoe- bos A- pol- lons|væ- li- ge Spand os|fø- rer fra Land og til|
!>(! (e3 e2)!>)! d | c3/2 c/!<(! c c2 c!<)! | f3/2 f/!>(! e d2!>)! B | A3/2 c/ f e d G | %26
w: Pol! _ med|Straa- ler- ne fra den|sti- gen- de Sol for-|la- de vor nord- li- ge|
w: Land! _ og|Phoe- bos A- pol- lons|væ- li- ge Spand os|fø- rer fra Land og til|
 A2!p! c c3/2 c/ c |!>(! (c3 c2)!>)! |] %28
w: Pol, vor nord- li- ge|Pol! _|
w: Land, fra Land og til|Land! _|
V:2
!mf! A | A3/2 A/ A A A A | G2!<(! G B3/2!<)!!f! B/ B | F3/2 F/ F G3/2 F/ G |!>(! (G3 _G2)!>)! G | %5
w: 1.Der|kom- mer i Vaa- ren en|Sværm til Nord: det er|Fug- le- nes sjun- gen- de|Kor. _ De|
w: 2.O|hør, hvor det klin- ger, af-|sted, af- sted! med vor|drøm- men- de Sjæl gaa vi|med! _ Af|
 F3/2 A/ =A B B B |!<(! B3/2 B/!<)! =B c!>(! c _B!>)! | A3"^cresc." A2 A | (G c2) e2 e | %9
w: Læn- ges i- gjen til O-|ran- ger- nes Hjem, og vor|Læng- sel vil|dra- * ge, vor|
w: To- ner vi løf- tes, med|To- ner vi gaa, og med|dem vi He-|spe- * rien, med|
 e c!>(! A G!>)! F B | B3 e3 | _d3!p! d3 | d3 d3 | c3!<(! c2 c!<)! | !>!=B2 c!>(! !>!d2 c!>)! | %15
w: Læng- sel vil dra- ge med|dem. O,|lad os,|lad os|flyg- te fra|Land og By! o,|
w: dem vi He- spe- ri- en|naa. En|gyng- ende,|gyng- ende|Pha- e- ton,|let og fin, den|
!p! (!>!_B3 !>!d3) | !>!e3 !>!d3 |!<(! c c c!<)! c e d | !>!=B2 c !>!_d2 c | %19
w: lad _|os, o,|lad os med Sky- er- ne|fly! ja fly! med|
w: bæ- rer|os, den|bæ- rer, den bæ- rer os|Elsk- te min! og|
 c3/2 c/ c"^cresc." =A2 A | B3/2 B/ B!>(! B2 B!>)! |!<(! c B c!<)! d e f |!>(! (c3 c2)!>)! B | %23
w: Straa- ler- ne fra den|sti- gen- de Sol for-|la- de vor nord- li- ge|Pol! _ med|
w: Phoe- bos A- pol- lons|væ- li- ge Spand os|fø- rer fra Land og til|Land! _ og|
 A3/2 A/!<(! A =A2 A!<)! | B3/2 B/!>(! c B2!>)! F | E3/2 A/ c c e d | c2!p! A A3/2 A/ A | %27
w: Straa- ler- ne fra den|sti- gen- de Sol for-|la- de vor nord- li- ge|Pol, vor nord- li- ge|
w: Phoe- bos A- pol- lons|væ- li- ge Spand os|fø- rer fra Land og til|Land, fra Land og til|
!>(! (A3 A2)!>)! |] %28
w: Pol! _|
w: Land! _|
V:3
!mf! E, | E,3/2 E,/ E, E, E, E, | E,2!<(! E, F,3/2!<)!!f! F,/ F, | F,3/2 F,/ F, F,3/2 F,/ F, | %4
w: 1.Der|kom- mer i Vaa- ren en|Sværm til Nord: det er|Fug- le- nes sjun- gen- de|
w: 2.O|hør, hvor det klin- ger, af-|sted, af- sted! med vor|drøm- men- de Sjæl gaa vi|
!>(! (=E,3 _E,2)!>)! E, | D,3/2 F,/ F, F, F, A, |!<(! G,3/2 G,/!<)! G, G,!>(! G, G,!>)! | %7
w: Kor. _ De|Læn- ges i- gjen til O-|ran- ger- nes Hjem, og vor|
w: med! _ Af|To- ner vi løf- tes, med|To- ner vi gaa, og med|
 F,3"^cresc." F,2 F, | (E,2 G,) A,2 =A, | B, B,!>(! B, B,!>)! B, A, | (G,3 G,2) z | z2 z!p! B,3 | %12
w: Læng- sel vil|dra- * ge, vor|Læng- sel vil dra- ge med|dem. _|O,|
w: dem vi He-|spe- * rien, med|dem vi He- spe- ri- en|naa. _|En|
 G,3 G,3 | A,3!<(! A,2 A,!<)! | !>!A,2 A,!>(! !>!A,2 A,!>)! |!p! (!>!A,3 !>!A,3) | !>!B,3 !>!B,3 | %17
w: lad os|flyg- te fra|Land og By! o,|lad _|os, o,|
w: gyng- ende|Pha- e- ton,|let og fin, den|bæ- rer|os, den|
!<(! A, A, A,!<)! E, F, G, | !>!A,2 E, !>!E,2 E, | C,3/2 C,/ C,"^cresc." F,2 F, | %20
w: lad os med Sky- er- ne|fly! ja fly! med|Straa- ler- ne fra den|
w: bæ- rer, den bæ- rer os|Elsk- te min! og|Phoe- bos A- pol- lons|
 F,3/2 F,/ F,!>(! E,2 E,!>)! |!<(! A, A, A,!<)! A, =G, F, |!>(! E,3!>)! =E,3 | %23
w: sti- gen- de Sol for-|la- de vor nord- li- ge|Pol! med|
w: væ- li- ge Spand os|fø- rer fra Land og til|Land! og|
 F,3/2 F,/!<(! F, _G,2 G,!<)! | F,3/2 F,/!>(! F, F,2!>)! D, | C,3/2 E,/ A, =A, B, E, | %26
w: Straa- ler- ne fra den|sti- gen- de Sol for-|la- de vor nord- li- ge|
w: Phoe- bos A- pol- lons|væ- li- ge Spand os|fø- rer fra Land og til|
 E,2!p! E, E,3/2 E,/ E, |!>(! (E,3 E,2)!>)! |] %28
w: Pol, vor nord- li- ge|Pol! _|
w: Land, fra Land og til|Land! _|
V:4
!mf! A,, | A,,3/2 A,,/ A,, C, A,, C, | E,2!<(! E, B,,3/2!<)!!f! B,,/ B,, | %3
w: 1.Der|kom- mer i Vaa- ren en|Sværm til Nord: det er|
w: 2.O|hør, hvor det klin- ger, af-|sted, af- sted! med vor|
 D,3/2 D,/ D, D,3/2 D,/ D, |!>(! (C,3 A,,2)!>)! C, | D,3/2 D,/ C, B,, B,, F, | %6
w: Fug- le- nes sjun- gen- de|Kor. _ De|Læn- ges i- gjen til O-|
w: drøm- men- de Sjæl gaa vi|med! _ Af|To- ner vi løf- tes, med|
!<(! E,3/2 E,/!<)! =D, C,!>(! C, =E,!>)! | F,3"^cresc." B,,2 =B,, | C,3 C,2 _C, | %9
w: ran- ger- nes Hjem, og vor|Læng- sel vil|dra- ge, vor|
w: To- ner vi gaa, og med|dem vi He-|spe- rien, med|
 B,, B,,!>(! B,, B,,!>)! C, =D, | (E,3 E,2) z | z6 | z2 z!p! E,3 | (A,, C,)!<(! E, A, G, F,!<)! | %14
w: Læng- sel vil dra- ge med|dem. _||O,|lad * os flyg- te fra|
w: dem vi He- spe- ri- en|naa. _||En|gyn- gen- de Pha- e- ton,|
 !>!=D,2 E,!>(! !>!F,2 E,!>)! |!p! (!>!E,3 !>!E,3) | !>!E,3 !>!E,3 | %17
w: Land og By! o,|lad _|os, o,|
w: let og fin, den|bæ- rer|os, den|
!<(! A,, A,, A,,!<)! A,, A,, A,, | !>!A,,2 A,, !>!A,,2 A,, | C,3/2 C,/ C,"^cresc." F,,2 F,, | %20
w: lad os med Sky- er- ne|fly! ja fly! med|Straa- ler- ne fra den|
w: bæ- rer, den bæ- rer os|Elsk- te min! og|Phoe- bos A- pol- lons|
 B,,3/2 B,,/ B,,!>(! (G,,B,,) E,!>)! |!<(! A, G, _G,!<)! F, E, D, |!>(! E,3!>)! =E,3 | %23
w: sti- gen- de Sol * for-|la- de vor nord- li- ge|Pol! med|
w: væ- li- ge Spand * os|fø- rer fra Land og til|Land! og|
 F,3/2 F,/!<(! F, E,2 E,!<)! | D,3/2 D,/!>(! =A,, (B,,C,)!>)! D, | E,3/2 E,/ E, E, E, E, | %26
w: Straa- ler- ne fra den|sti- gen- de Sol _ for-|la- de vor nord- li- ge|
w: Phoe- bos A- pol- lons|væ- li- ge Spand _ os|fø- rer fra Land og til|
 A,,2!p! A,, A,,3/2 A,,/ A,, |!>(! (A,,3 A,,2)!>)! |] %28
w: Pol, vor nord- li- ge|Pol! _|
w: Land, fra Land og til|Land! _|
V:5
 x | x6 | x6 | x6 | x6 | x6 | x6 | x6 | x6 | x6 | x6 | x6 | x6 | x6 | x6 | x6 | x6 | x6 | x6 | x6 | %20
 x6 | x6 | x6 | x6 | x6 | E,>E,E, E,,E,,E,, | x6 | x5 |] %28

